X:0877
M:6/8
L:1/8
Q:3/8=88
K:D
d>ed def|gfe  afd|d>ed e2f|gec d3:|
f2d  e2a|f2d  e2a|d>ed e2f|gec d3:|
a>ba afd|g>ag gec|d>ed e2f|gec d3:|

